X:1
T:Angel Band
T:Angel Band
T:J. William Suffern
T:J. William Suffern, 1869
T:Public Domain Courtesy of the Cyber Hymnal™
C:J. William Suffern
Z:Public Domain
Z:Courtesy of the Cyber Hymnal™
%%score ( 1 2 ) ( 3 4 )
L:1/8
Q:1/4=110
M:6/8
K:C
V:1 treble 
V:2 treble 
V:3 bass 
V:4 bass 
V:1
 [EG]3 ([CE][DF])[EG] | [FA]2 [EG] [Ec]3 | [CA]3 [B,D]2 [DF] | [CE]3- [CE]2 z | %4
w: 1.~Shall we * all|reach that land,|When time is|o’er? *|
w: 2.~Oh, ’tis * a|glor- ious land,|That land a-|bove; *|
w: 3.~Let us * re-|mem- ber, then,|When cares op-|press; *|
 [EG]3 ([CE][DF])[EG] | [FA]2 [EG] [Ec]3 | [Gd]3 ([^FA][GB])[Ac] | [GB]3- [GB]2 z | %8
w: Shall we * there|join the throng|On Ca- * naan’s|shore? *|
w: There is * no|sor- row there,|All, all * is|love. *|
w: We have * a|home be- yond|This wil- * der-|ness. *|
 [GB]3 ([GB][FA])[FB] | [Ec]2 [Ec] [Ec]3 | [Fd]3 (dc)[Gd] | [Ge]2 [Ge] [Ge]3 | [Ge]3 [Ge]2 [Fd] | %13
w: There in * that|hap- py land,|Shall we * for-|ev- er stand,|With the bright|
w: There tears * shall|ne- ver start,|But love * shall|warm each heart,|And friends shall|
w: Sor- row * can|ne- ver come|In- to * that|heav’n- ly home,|And we no|
 [Ec]2 [FA] [FA]3 | [EG]3 [Fd]2 [Fd] | [Ec]3- [Ec]2 z ||"^Refrain" [EG]3 [CE][DF][EG] | %17
w: an- gel band,|For- ev- er-|more. *||
w: ne- ver part;|No, ne- ver-|more. *|There, there in that|
w: more shall roam;|No, ne- ver-|more. *||
 [FA]2 [EG] [Ec]3 | [Gd]3 (dc)[Gd] | [Ge]2 [Ge] [Ge]3 | [Ge]3 [Ge]2 [Fd] | [Ec]2 [FA] [FA]3 | %22
w: |||||
w: hap- py land,|We round * the|throne shall stand,|With the bright|an- gel band,|
w: |||||
 [EG]3 [Fd]2 [Fd] | [Ec]6 |] %24
w: ||
w: For- ev- er-|more.|
w: ||
V:2
 x6 | x6 | x6 | x6 | x6 | x6 | x6 | x6 | x6 | x6 | x3 G2 x | x6 | x6 | x6 | x6 | x6 || x6 | x6 | %18
 x3 G2 x | x6 | x6 | x6 | x6 | x6 |] %24
V:3
 [C,C]3 [C,C]2 [C,C] | [C,C]2 [C,C] [C,G,]3 | [F,A,]3 G,2 [G,,G,] | [C,G,]3- [C,G,]2 z | %4
 [C,C]3 [C,C]2 [C,C] | [C,C]2 [C,C] [C,G,]3 | [B,,G,]3 (CB,)[D,A,] | [G,,G,]3- [G,,G,]2 z | %8
 [G,D]3 [G,D]2 [G,D] | [A,C]2 [A,C] [A,C]3 | [D,A,]3 (B,A,)[G,B,] | C2 C C3 | C3 C2 [G,B,] | %13
 A,2 [F,C] [F,C]3 | [G,C]3 (CB,)[G,B,] | [C,C]3- [C,C]2 z || [C,C]3 [C,G,][C,C][C,C] | %17
 [C,C]2 [C,C] [C,G,]3 | [G,B,]3 (B,A,)[G,B,] | C2 C C3 | C3 C2 [G,B,] | A,2 [F,C] [F,C]3 | %22
 [G,C]3 [G,B,]2 [G,B,] | [C,C]6 |] %24
V:4
 x6 | x6 | x3 G,2 x | x6 | x6 | x6 | x3 D,2 x | x6 | x6 | x6 | x3 G,2 x | C2 C C3 | C3 C2 x | %13
 A,2 x4 | x3 G,2 x | x6 || x6 | x6 | x3 G,2 x | C2 C C3 | C3 C2 x | A,2 x4 | x6 | x6 |] %24

